X: 34529
T: Rîl Gwŷr Pencerdd
R: reel
M: 4/4
K: Dminor
D2|:dD (3DDD DFAd|fedc d2 dA|BAGA BAGF|GFED CA,AG|
FD (3DDD DFAd|(3efg fe d2 ef|gaba gfed|1 Ade^c d2 A2:|2 d2 ^c2 d2 e2||
|:[Af]2 fc AFAc|d/c/Bdf edcB|AF (3FFF FGA=B|cA=BG A2 AG|
FD (3DDD DFAd|fedc d2 ef|gaba gfed|1 Ade^c d2 ag:|2 Ade^c d2 (3AAA||
|:D2 DE FDFA|dDcD BDAD|GECD ECEG|c2 c=B cGEC|
D2 DE FDFA|dAeA fAeA|edce dAc/B/A/G/|1 FDEC D2 (3AAA:|2 FDEC D2 x2||

